X: 1
T:Tho' Prudence may press me. WCl.47
M:3/4
L:1/8
Q:120
S:William Clarke MS,Lincoln,1770.
R:song
O:Lincoln
A:England
N:Words not given.....
Z:vmp.Barry Callaghan
K:G
"No time sig."d|d2B2c2|(de) e3 e|(dc) (B2A2)|d>B G2zd|!
d2B2c2|de e3 d|(gf)(ed)(cB)|d>BA2z:||!
A|A2 ((3cBA) ((3cBA)|B2"tr"c2d2|D2 ((3cBA) ((3cBA)|B2c2z d|!
d2B2c2|(dg)(fa)gd|{f}e(d/2c/2)B2"tr"A2|G4z:||
